X: 28961
T: Nancy's
R: waltz
M: 3/4
K: Amixolydian
AB|:c3 B cd|e3 e fg|f3 f ed|c A3 AB|
c3 B cd|e3 c2 A|G3 A B2|E A3 AB|
c3 B cd|e a3 a2|f3 f ed|c2 A>A EF|
G3 A B2|d3 B AG|F3 F EF|1 E4 AB:|2 E2E2 ag||
f3 f ed|c A3 EF|G A3 BG|F2 A>c ea|
f3 f ed|c2 a>a ef|g3 f ed|e3 e ab|
c'3 c' af|e c3 Bc|d2 e2 fa|e c3 E>F|
G3 A B2|d3 B AG|F3 F E>F|1 E2E2 ag:|2 E4 AB||

